icons/magnifying_glass_fill.svg

<svg width="48" height="48" viewBox="0 0 48 48" fill="none" xmlns="http://www.w3.org/2000/svg">
<path d="M18.7479 12.8156C17.0072 12.8833 15.4353 13.5043 14.5944 14.3454C14.2039 14.736 13.5707 14.736 13.1802 14.3455C12.7896 13.9551 12.7895 13.3219 13.18 12.9313C14.4774 11.6337 16.5888 10.8981 18.6701 10.8171C20.765 10.7356 23.0521 11.3092 24.6538 12.9112C25.0442 13.3017 25.0442 13.9349 24.6536 14.3254C24.2631 14.7159 23.6299 14.7158 23.2394 14.3253C22.1484 13.234 20.4749 12.7484 18.7479 12.8156Z" fill="black"/>
<path fill-rule="evenodd" clip-rule="evenodd" d="M28.9355 27.3841C30.8475 25.1207 32 22.1949 32 19C32 11.8203 26.1797 6 19 6C11.8203 6 6 11.8203 6 19C6 26.1797 11.8203 32 19 32C22.1949 32 25.1207 30.8475 27.3841 28.9355L27 31.1442L34.5137 38.6579L38.6579 34.5137L31.1442 27L28.9355 27.3841ZM19 29C24.5228 29 29 24.5228 29 19C29 13.4772 24.5228 9 19 9C13.4772 9 9 13.4772 9 19C9 24.5228 13.4772 29 19 29Z" fill="black"/>
<path d="M35.9279 40.0721L40.0721 35.9279L41.4278 37.2837C42.1907 38.0466 42.1907 39.2835 41.4278 40.0464L40.0464 41.4278C39.2835 42.1907 38.0466 42.1907 37.2837 41.4278L35.9279 40.0721Z" fill="black"/>
</svg>

<svg
  xmlns="http://www.w3.org/2000/svg"
  width="24"
  height="24"
  viewBox="0 0 24 24"
  fill="none"
  stroke="currentColor"
  stroke-width="2"
  stroke-linecap="round"
  stroke-linejoin="round"
>
  <path d="M18.748 12.816c-1.74.067-3.313.688-4.154 1.53a1 1 0 1 1-1.414-1.415c1.297-1.297 3.409-2.033 5.49-2.114 2.095-.081 4.382.492 5.984 2.094a1 1 0 0 1-1.415 1.414c-1.09-1.091-2.764-1.577-4.491-1.51" />
  <path
    fill-rule="evenodd"
    d="M28.936 27.384A12.95 12.95 0 0 0 32 19c0-7.18-5.82-13-13-13S6 11.82 6 19s5.82 13 13 13c3.195 0 6.12-1.152 8.384-3.064L27 31.144l7.514 7.514 4.144-4.144L31.144 27zM19 29c5.523 0 10-4.477 10-10S24.523 9 19 9 9 13.477 9 19s4.477 10 10 10"
    clip-rule="evenodd"
  />
  <path d="m35.928 40.072 4.144-4.144 1.356 1.356c.763.763.763 2 0 2.762l-1.382 1.382c-.763.763-2 .763-2.762 0z" />
</svg>
